X: 29985
T: Octopus, The
R: jig
M: 6/8
K: Dmajor
A|:"D"d2e fed|"G"BGB "D"A2G|FAF "A"EAE|"G"DAD "A7"C2A|
"D"d2A FAd|"G"BGB "D"AFA|"G"BGD "A"cAa|1 "D"f2d d2A:|2 "D"f2d d2G||
|:"D"FGA def|"Fdim"ba^g "D"a2f|"G"g2B "D"f2A|"A7"edc "D"d2d|
"A"cec ABc|"D"dBb afd|"G"BGe "A"cAa|1 "D"f2d d2G:|2 "D"f2d d2A||

